X: 4
T: Mari's Wedding
R: reel
Q:1/2=110
M: 4/4
L: 1/8
K: Dmaj
x8||:"D"A3BA2B2|d2 e2 f3 f |"G"e2 d2 B2 d2 |"A" f2 e2 f a3|
"D"A3BA2B2|d2 e2 f3 f|"G"e2 d2 B2 G2|"A"A4 A4:||
|"D"a4 a3 b|a2 g2 f3 f|"G"e2 d2 B2 d2 |"A"f2 e2 f a3|
"D"a4 a3 b|a2 g2 f3 f|"G"e2 d2 B2 G2|"A"A4 A4:||
    